X:101
T:Merry blacksmith, The
T:Paddy on the railroad
R:barndance
O:Ireland
O:Scotland
O:England
M:C
L:1/8
Q:1/4=240
K:D
fe|"D"d2dA "D"BAFA|"D"ABdA "D"BAFA|"D"ABde "D"{J}f2ed|"Em"Beed "Em"egfe|\
"D"d2dA "D"BAFA|"D"ABdA "D"BAFA|"D"ABde "D"fdec|"D"dBAF "D"D2::\
fg|"D"a2ag "D"f2fe|"D"d2dA "D"BAFA|"D"ABde "D"f2ed|"Em"Beed "Em"egfe|\
"D"abag "D"fgfe|"D"d2dA "D"BAFA|"D"ABde "D"fdec|"D"dBAF "D"D2:|
